alura/assets/api/cursos/apache-beam-data-pipeline-python.svg

<?xml version="1.0" encoding="UTF-8"?>
<svg width="50px" height="50px" viewBox="0 0 50 50" version="1.1" xmlns="http://www.w3.org/2000/svg" xmlns:xlink="http://www.w3.org/1999/xlink">
    <title>Group 32</title>
    <defs>
        <polygon id="path-1" points="0 49 49.248 49 49.248 0.058 0 0.058"></polygon>
    </defs>
    <g id="Page-1" stroke="none" stroke-width="1" fill="none" fill-rule="evenodd">
        <g id="Group-32">
            <polygon id="Fill-1" fill="#FCC34F" points="47.716 26.7585 48.116 31.0475 1.877 47.8775 2.01 38.8275 2.357 33.6255 48.421 16.8595 47.716 20.5675"></polygon>
            <polygon id="Fill-2" fill="#FDCF72" points="47.716 10.1652 47.159 17.8692 2.01 34.3012 2.01 24.5302 2.335 20.1062 47.829 3.5472"></polygon>
            <g id="Group-31" transform="translate(0.000000, 0.941900)">
                <polyline id="Stroke-3" stroke="#444444" stroke-width="2.5" stroke-linecap="round" stroke-linejoin="round" points="32.5529 47.7502 1.2499 47.7502 1.2499 1.3082 47.9979 1.3082 47.9979 37.3012"></polyline>
                <path d="M43.2609,27.1374 C43.2609,27.5064 42.9619,27.8044 42.5939,27.8054 L20.5589,27.8054 C20.1909,27.8044 19.8919,27.5064 19.8919,27.1374 L19.8919,11.7804 C19.8919,11.4114 20.1909,11.1134 20.5589,11.1134 L42.5939,11.1134 C42.9619,11.1134 43.2609,11.4114 43.2609,11.7804 L43.2609,27.1374 Z M33.9129,34.4824 L29.9069,34.4824 L29.9069,29.1404 L31.2419,29.1404 L31.2419,31.1434 C31.2419,31.5124 31.5409,31.8114 31.9099,31.8114 C32.2789,31.8114 32.5779,31.5124 32.5779,31.1434 L32.5779,29.1404 L33.9129,29.1404 L33.9129,34.4824 Z M27.2359,37.1534 L36.5839,37.1534 L36.5839,35.8184 L27.2359,35.8184 L27.2359,37.1534 Z M42.5939,9.7774 L20.5589,9.7774 C19.4529,9.7784 18.5569,10.6744 18.5559,11.7804 L18.5559,27.1374 C18.5569,28.2434 19.4529,29.1394 20.5589,29.1404 L28.5719,29.1404 L28.5719,34.4824 L26.5689,34.4824 C26.1999,34.4824 25.9009,34.7814 25.9009,35.1494 L25.9009,37.8204 C25.9009,38.1894 26.1999,38.4884 26.5689,38.4884 L26.9599,38.4884 L27.4319,38.9604 C27.5569,39.0854 27.7269,39.1564 27.9039,39.1564 L29.2399,39.1564 C29.4159,39.1564 29.5859,39.0854 29.7119,38.9604 L30.1839,38.4884 L33.6369,38.4884 L34.1089,38.9604 C34.2339,39.0854 34.4039,39.1564 34.5809,39.1564 L35.9159,39.1564 C36.0939,39.1564 36.2629,39.0854 36.3879,38.9604 L36.8609,38.4884 L37.2519,38.4884 C37.6199,38.4884 37.9199,38.1894 37.9199,37.8204 L37.9199,35.1494 C37.9199,34.7814 37.6199,34.4824 37.2519,34.4824 L35.2489,34.4824 L35.2489,29.1404 L42.5939,29.1404 C43.6989,29.1394 44.5949,28.2434 44.5959,27.1374 L44.5959,11.7804 C44.5949,10.6744 43.6989,9.7784 42.5939,9.7774 L42.5939,9.7774 Z" id="Fill-5" fill="#444444"></path>
                <mask id="mask-2" fill="white">
                    <use xlink:href="#path-1"></use>
                </mask>
                <g id="Clip-8"></g>
                <path d="M22.562,25.134 L40.59,25.134 L40.59,13.783 L22.562,13.783 L22.562,25.134 Z M41.258,12.448 L21.895,12.448 C21.526,12.448 21.227,12.747 21.227,13.116 L21.227,25.802 C21.227,26.171 21.526,26.47 21.895,26.47 L41.258,26.47 C41.627,26.47 41.925,26.171 41.925,25.802 L41.925,13.116 C41.925,12.747 41.627,12.448 41.258,12.448 L41.258,12.448 Z" id="Fill-7" fill="#444444" mask="url(#mask-2)"></path>
                <path d="M23.8976,14.4513 C24.2666,14.4513 24.5656,14.7503 24.5656,15.1183 C24.5656,15.4873 24.2666,15.7863 23.8976,15.7863 C23.5286,15.7863 23.2306,15.4873 23.2306,15.1183 C23.2306,14.7503 23.5286,14.4513 23.8976,14.4513" id="Fill-9" fill="#444444" mask="url(#mask-2)"></path>
                <path d="M25.901,14.4513 C26.27,14.4513 26.568,14.7503 26.568,15.1183 C26.568,15.4873 26.27,15.7863 25.901,15.7863 C25.532,15.7863 25.233,15.4873 25.233,15.1183 C25.233,14.7503 25.532,14.4513 25.901,14.4513" id="Fill-10" fill="#444444" mask="url(#mask-2)"></path>
                <path d="M27.904,14.4513 C28.273,14.4513 28.571,14.7503 28.571,15.1183 C28.571,15.4873 28.273,15.7863 27.904,15.7863 C27.535,15.7863 27.236,15.4873 27.236,15.1183 C27.236,14.7503 27.535,14.4513 27.904,14.4513" id="Fill-11" fill="#444444" mask="url(#mask-2)"></path>
                <polygon id="Fill-12" fill="#444444" mask="url(#mask-2)" points="23.898 18.457 25.233 18.457 25.233 17.122 23.898 17.122"></polygon>
                <polygon id="Fill-13" fill="#444444" mask="url(#mask-2)" points="27.236 18.457 31.242 18.457 31.242 17.122 27.236 17.122"></polygon>
                <polygon id="Fill-14" fill="#444444" mask="url(#mask-2)" points="32.578 18.457 33.913 18.457 33.913 17.122 32.578 17.122"></polygon>
                <polygon id="Fill-15" fill="#444444" mask="url(#mask-2)" points="23.898 21.128 25.233 21.128 25.233 19.793 23.898 19.793"></polygon>
                <polygon id="Fill-16" fill="#444444" mask="url(#mask-2)" points="27.236 21.128 29.239 21.128 29.239 19.793 27.236 19.793"></polygon>
                <polygon id="Fill-17" fill="#444444" mask="url(#mask-2)" points="30.575 21.128 37.92 21.128 37.92 19.793 30.575 19.793"></polygon>
                <polygon id="Fill-18" fill="#444444" mask="url(#mask-2)" points="23.898 23.799 25.233 23.799 25.233 22.464 23.898 22.464"></polygon>
                <polygon id="Fill-19" fill="#444444" mask="url(#mask-2)" points="27.236 23.799 31.91 23.799 31.91 22.464 27.236 22.464"></polygon>
                <polygon id="Fill-20" fill="#444444" mask="url(#mask-2)" points="33.245 23.799 34.58 23.799 34.58 22.464 33.245 22.464"></polygon>
                <path d="M5.87,27.137 L10.544,27.137 L10.544,23.131 L5.87,23.131 L5.87,27.137 Z M5.87,32.479 L10.544,32.479 L10.544,28.473 L5.87,28.473 L5.87,32.479 Z M11.879,37.82 L22.562,37.82 L22.562,33.814 L11.879,33.814 L11.879,37.82 Z M5.87,37.821 L10.544,37.821 L10.544,33.815 L5.87,33.815 L5.87,37.821 Z M5.202,39.156 L23.23,39.156 C23.599,39.156 23.898,38.857 23.898,38.488 L23.898,30.476 L22.562,30.476 L22.562,32.479 L11.879,32.479 L11.879,28.473 L17.221,28.473 L17.221,27.137 L11.879,27.137 L11.879,23.131 L17.221,23.131 L17.221,21.796 L5.202,21.796 C4.834,21.796 4.535,22.095 4.535,22.464 L4.535,38.488 C4.535,38.857 4.834,39.156 5.202,39.156 L5.202,39.156 Z" id="Fill-21" fill="#444444" mask="url(#mask-2)"></path>
                <path d="M7.8732,24.4665 C8.2422,24.4665 8.5402,24.7655 8.5402,25.1345 C8.5402,25.5035 8.2422,25.8015 7.8732,25.8015 C7.5042,25.8015 7.2052,25.5035 7.2052,25.1345 C7.2052,24.7655 7.5042,24.4665 7.8732,24.4665" id="Fill-22" fill="#444444" mask="url(#mask-2)"></path>
                <path d="M7.8732,29.8083 C8.2422,29.8083 8.5402,30.1073 8.5402,30.4753 C8.5402,30.8453 8.2422,31.1433 7.8732,31.1433 C7.5042,31.1433 7.2052,30.8453 7.2052,30.4753 C7.2052,30.1073 7.5042,29.8083 7.8732,29.8083" id="Fill-23" fill="#444444" mask="url(#mask-2)"></path>
                <path d="M7.8732,35.1496 C8.2422,35.1496 8.5402,35.4486 8.5402,35.8176 C8.5402,36.1866 8.2422,36.4846 7.8732,36.4846 C7.5042,36.4846 7.2052,36.1866 7.2052,35.8176 C7.2052,35.4486 7.5042,35.1496 7.8732,35.1496" id="Fill-24" fill="#444444" mask="url(#mask-2)"></path>
                <polygon id="Fill-25" fill="#444444" mask="url(#mask-2)" points="13.215 25.801 14.55 25.801 14.55 24.466 13.215 24.466"></polygon>
                <polygon id="Fill-26" fill="#444444" mask="url(#mask-2)" points="15.218 25.801 16.553 25.801 16.553 24.466 15.218 24.466"></polygon>
                <polygon id="Fill-27" fill="#444444" mask="url(#mask-2)" points="13.215 31.143 14.55 31.143 14.55 29.808 13.215 29.808"></polygon>
                <polygon id="Fill-28" fill="#444444" mask="url(#mask-2)" points="15.218 31.143 16.553 31.143 16.553 29.808 15.218 29.808"></polygon>
                <polygon id="Fill-29" fill="#444444" mask="url(#mask-2)" points="13.215 36.485 14.55 36.485 14.55 35.15 13.215 35.15"></polygon>
                <polygon id="Fill-30" fill="#444444" mask="url(#mask-2)" points="15.218 36.485 16.553 36.485 16.553 35.15 15.218 35.15"></polygon>
            </g>
        </g>
    </g>
</svg>

<svg xmlns="http://www.w3.org/2000/svg" xmlns:xlink="http://www.w3.org/1999/xlink" viewBox="0 0 50 50"><defs><path id="a" d="M0 49h49.248V.058H0z"/></defs><g fill="none" fill-rule="evenodd"><path fill="#FCC34F" d="M47.716 26.759l.4 4.288-46.239 16.83.133-9.05.347-5.201L48.421 16.86l-.705 3.707z"/><path fill="#FDCF72" d="M47.716 10.165l-.557 7.704L2.01 34.301v-9.77l.325-4.425L47.829 3.547z"/><g transform="translate(0 .942)"><path stroke="#444" stroke-linecap="round" stroke-linejoin="round" stroke-width="2.5" d="M32.553 47.75H1.25V1.308h46.748v35.993"/><path fill="#444" d="M43.26 27.137a.668.668 0 01-.666.668H20.559a.668.668 0 01-.667-.668V11.78c0-.369.299-.667.667-.667h22.035c.368 0 .667.298.667.667v15.357zm-9.347 7.345h-4.006V29.14h1.335v2.003a.668.668 0 101.336 0V29.14h1.335v5.342zm-6.677 2.671h9.348v-1.335h-9.348v1.335zM42.594 9.777H20.559a2.005 2.005 0 00-2.003 2.003v15.357a2.005 2.005 0 002.003 2.003h8.013v5.342h-2.003a.668.668 0 00-.668.667v2.671c0 .37.299.668.668.668h.39l.473.472a.668.668 0 00.472.196h1.336a.672.672 0 00.472-.196l.472-.472h3.453l.472.472a.668.668 0 00.472.196h1.335a.667.667 0 00.472-.196l.473-.472h.39a.669.669 0 00.669-.668v-2.67c0-.369-.3-.668-.668-.668h-2.003V29.14h7.345a2.004 2.004 0 002.002-2.003V11.78a2.004 2.004 0 00-2.002-2.003z"/><mask id="b" fill="#fff"><use xlink:href="#a"/></mask><path fill="#444" d="M22.562 25.134H40.59V13.783H22.562v11.351zm18.696-12.686H21.895a.668.668 0 00-.668.668v12.686c0 .369.299.668.668.668h19.363a.667.667 0 00.667-.668V13.116a.667.667 0 00-.667-.668z" mask="url(#b)"/><path fill="#444" d="M23.898 14.451a.668.668 0 110 1.336.668.668 0 010-1.336m2.003 0a.667.667 0 110 1.334.667.667 0 010-1.334m2.003 0a.667.667 0 110 1.334.667.667 0 010-1.334m-4.006 4.006h1.335v-1.335h-1.335zm3.338 0h4.006v-1.335h-4.006zm5.342 0h1.335v-1.335h-1.335zm-8.68 2.671h1.335v-1.335h-1.335zm3.338 0h2.003v-1.335h-2.003zm3.339 0h7.345v-1.335h-7.345zm-6.677 2.671h1.335v-1.335h-1.335zm3.338 0h4.674v-1.335h-4.674zm6.009 0h1.335v-1.335h-1.335zM5.87 27.137h4.674v-4.006H5.87v4.006zm0 5.342h4.674v-4.006H5.87v4.006zm6.009 5.341h10.683v-4.006H11.879v4.006zm-6.009.001h4.674v-4.006H5.87v4.006zm-.668 1.335H23.23a.668.668 0 00.668-.668v-8.012h-1.336v2.003H11.879v-4.006h5.342v-1.336h-5.342v-4.006h5.342v-1.335H5.202a.668.668 0 00-.667.668v16.024c0 .369.299.668.667.668z" mask="url(#b)"/><path fill="#444" d="M7.873 24.466a.667.667 0 110 1.335.667.667 0 010-1.334m0 5.341a.667.667 0 110 1.334.667.667 0 010-1.334m0 5.342a.667.667 0 110 1.334.667.667 0 010-1.334m5.342-9.349h1.335v-1.335h-1.335zm2.003 0h1.335v-1.335h-1.335zm-2.003 5.342h1.335v-1.335h-1.335zm2.003 0h1.335v-1.335h-1.335zm-2.003 5.342h1.335V35.15h-1.335zm2.003 0h1.335V35.15h-1.335z" mask="url(#b)"/></g></g></svg>
